src/icons/svg/like.svg

<?xml version="1.0" standalone="no"?><!DOCTYPE svg PUBLIC "-//W3C//DTD SVG 1.1//EN" "http://www.w3.org/Graphics/SVG/1.1/DTD/svg11.dtd"><svg t="1576988856339" class="icon" viewBox="0 0 1024 1024" version="1.1" xmlns="http://www.w3.org/2000/svg" p-id="22083" xmlns:xlink="http://www.w3.org/1999/xlink" width="128" height="128"><defs><style type="text/css"></style></defs><path d="M504.797867 984.200533c-263.918933 0-477.866667-214.016-477.866667-477.866667 0-203.707733 127.658667-377.173333 307.2-445.917867l0 73.9328c-140.9024 64.750933-238.933333 206.779733-238.933333 371.985067 0 226.2016 183.364267 409.6 409.6 409.6 226.2016 0 409.6-183.3984 409.6-409.6 0-165.239467-98.030933-307.234133-238.933333-371.985067L675.464533 60.381867c179.5072 68.778667 307.2 242.244267 307.2 445.917867C982.664533 770.184533 768.7168 984.200533 504.797867 984.200533zM726.664533 677.000533l-238.933333 0c-9.4208 0-17.066667-7.68-17.066667-17.066667l0-34.133333c0-9.454933 7.645867-17.066667 17.066667-17.066667l238.933333 0c9.4208 0 17.066667 7.611733 17.066667 17.066667l0 34.133333C743.7312 669.320533 736.085333 677.000533 726.664533 677.000533zM487.7312 403.899733c-9.4208 0-17.066667-7.645867-17.066667-17.066667l0-34.133333c0-9.4208 7.645867-17.066667 17.066667-17.066667l238.933333 0c9.4208 0 17.066667 7.645867 17.066667 17.066667l0 34.133333c0 9.4208-7.645867 17.066667-17.066667 17.066667L487.7312 403.899733zM777.864533 489.233067l0 34.133333c0 9.4208-7.645867 17.066667-17.066667 17.066667l-273.066667 0c-9.4208 0-17.066667-7.645867-17.066667-17.066667l0-34.133333c0-9.4208 7.645867-17.066667 17.066667-17.066667l273.066667 0C770.218667 472.1664 777.864533 479.812267 777.864533 489.233067zM453.597867 299.758933l0 1.774933c-84.821333 0-153.6 68.778667-153.6 153.6l0 136.533333c0 84.7872 68.778667 153.6 153.6 153.6l238.933333 0c8.8064 0 17.3056-1.194667 25.7024-2.594133-18.090667 53.077333-29.832533 70.8608-93.969067 70.8608l-170.666667 0c-122.538667 0-221.866667-99.328-221.866667-221.866667l0-136.533333c0-107.861333 77.038933-197.563733 179.029333-217.565867 32.836267-15.530667 59.904-35.669333 59.904-72.567467l0-136.533333c0 1.8432 102.4 26.3168 102.4 102.4l0 34.133333C573.064533 255.044267 497.595733 291.805867 453.597867 299.758933z" p-id="22084" fill="#bfbfbf"></path></svg>

<svg class="icon" viewBox="0 0 1024 1024" xmlns="http://www.w3.org/2000/svg" width="128" height="128"><defs><style/></defs><path d="M504.798 984.2c-263.92 0-477.867-214.015-477.867-477.866 0-203.708 127.659-377.173 307.2-445.918v73.933C193.23 199.099 95.198 341.129 95.198 506.334c0 226.201 183.364 409.6 409.6 409.6 226.201 0 409.6-183.399 409.6-409.6 0-165.24-98.031-307.234-238.933-371.985V60.382c179.507 68.779 307.2 242.244 307.2 445.918 0 263.885-213.948 477.9-477.867 477.9zM726.665 677H487.73c-9.42 0-17.066-7.68-17.066-17.066V625.8c0-9.455 7.645-17.067 17.066-17.067h238.934c9.42 0 17.066 7.612 17.066 17.067v34.133c0 9.387-7.646 17.067-17.066 17.067zM487.73 403.9c-9.42 0-17.066-7.646-17.066-17.067V352.7c0-9.421 7.645-17.067 17.066-17.067h238.934c9.42 0 17.066 7.646 17.066 17.067v34.133c0 9.42-7.646 17.067-17.066 17.067H487.73zm290.134 85.333v34.133c0 9.421-7.646 17.067-17.067 17.067H487.73c-9.42 0-17.066-7.646-17.066-17.067v-34.133c0-9.42 7.645-17.067 17.066-17.067h273.067c9.42 0 17.067 7.646 17.067 17.067zM453.598 299.76v1.775c-84.821 0-153.6 68.779-153.6 153.6v136.533c0 84.787 68.779 153.6 153.6 153.6H692.53c8.807 0 17.306-1.194 25.703-2.594-18.091 53.077-29.833 70.86-93.97 70.86H453.599c-122.539 0-221.867-99.327-221.867-221.866V455.134c0-107.861 77.04-197.564 179.03-217.566 32.836-15.53 59.904-35.67 59.904-72.567V28.467c0 1.843 102.4 26.317 102.4 102.4v34.134c0 90.043-75.47 126.805-119.467 134.758z"/></svg>
